X: 18660
T: I'll Buy Boots For Maggie
R: polka
M: 2/4
K: Adorian
|:A>B cd|eg ga|ef/e/ dB|AB GE|
A>B cd|eg ga|ef/e/ dB|BA A2:|
EA AB|cB AG|EA AB|cB AG|
EA AB|cB AB|ef/e/ dB|BA A2|
ea ab|c'b a2|=fa ab|c'b a2|
^fa ab|c'b ag|ef/e/ dB|BA A2||

